crypto/bidr.svg

<svg fill="none" height="32" viewBox="0 0 32 32" width="32" xmlns="http://www.w3.org/2000/svg"><path d="m16 32c8.8366 0 16-7.1634 16-16 0-8.83656-7.1634-16-16-16-8.83656 0-16 7.16344-16 16 0 8.8366 7.16344 16 16 16z" fill="#f0b90b"/><g fill="#fff"><path d="m11.75 14.247v-2.5h8.503v2.5h-6.003v9.753h3.5v-3.753-2.5h6.25v-9.747h-16v16h3.75z"/><path d="m24 20.2471h-3.75v3.7529h3.75z"/></g></svg>

<svg width="32" height="32" fill="none" xmlns="http://www.w3.org/2000/svg"><path d="M16 32c8.837 0 16-7.163 16-16S24.837 0 16 0 0 7.163 0 16s7.163 16 16 16Z" fill="#F0B90B"/><path d="M11.75 14.247v-2.5h8.503v2.5H14.25V24h3.5v-6.253H24V8H8v16h3.75v-9.753Z" fill="#fff"/><path d="M24 20.247h-3.75V24H24v-3.753Z" fill="#fff"/></svg>
